X:1
T:Gin A 'Were A Barons Heir
M:6/8
L:1/8
Q:80
C:arr.  James D. Nisbet
S:March
K:HP
|: A | \
{Gdc}d2e{g}f2a | \
{g}a2f{g}f2 | \
{g}e2d{g}A2d |
{g}f2e{A}e2A | \
{Gdc}d2e{g}f2a | \
{g}a2f{g}f2 |
{g}Bd2{g}f2e | \
{A}e3{Gdc}d2 :: \
a |
{g}a2f{g}f2a | \
{f}g2e{A}e2g | | \
{a}f2d{g}A2d |
{g}f2e{A}e2A | \
{Gdc}d2e{g}f2a | \
{g}a2f{g}f2 |
{g}Bd2{g}f2e | \
{A}e3{Gdc}d2 :|
